Arcticons/scalable/apps/googlephotos.svg

<svg id="Layer_2" data-name="Layer 2" viewBox="0 0 48 48" xmlns="http://www.w3.org/2000/svg">
 <defs>
  <style>.cls-1{fill:none;stroke:#fff;stroke-linecap:round;stroke-linejoin:round;}</style>
 </defs>
 <path class="cls-1" d="m14.75 13.51a9.25 9.25 0 0 1 9.25 9.25v1.24h-17.26a1.24 1.24 0 0 1-1.24-1.24 9.25 9.25 0 0 1 9.25-9.25z"/>
 <path class="cls-1" transform="translate(66.5 58.49) rotate(180)" d="m33.25 24a9.25 9.25 0 0 1 9.25 9.25v1.24h-17.26a1.24 1.24 0 0 1-1.24-1.24 9.25 9.25 0 0 1 9.25-9.25z"/>
 <path class="cls-1" transform="translate(-14.5 52) rotate(-90)" d="m18.75 28a9.25 9.25 0 0 1 9.25 9.25v1.25h-17.25a1.24 1.24 0 0 1-1.25-1.25 9.25 9.25 0 0 1 9.25-9.25z"/>
 <path class="cls-1" transform="translate(44 -14.5) rotate(90)" d="m29.25 9.5a9.25 9.25 0 0 1 9.25 9.25v1.25h-17.26a1.24 1.24 0 0 1-1.24-1.25 9.25 9.25 0 0 1 9.25-9.25z"/>
</svg>

<svg id="Layer_2" data-name="Layer 2" xmlns="http://www.w3.org/2000/svg" viewBox="0 0 48 48"><defs><style>.cls-1{fill:none;stroke:#fff;stroke-linecap:round;stroke-linejoin:round;}</style></defs><path class="cls-1" d="M14.75,13.51h0A9.25,9.25,0,0,1,24,22.76V24a0,0,0,0,1,0,0H6.74A1.24,1.24,0,0,1,5.5,22.76v0A9.25,9.25,0,0,1,14.75,13.51Z"/><path class="cls-1" d="M33.25,24h0a9.25,9.25,0,0,1,9.25,9.25v1.24a0,0,0,0,1,0,0H25.24A1.24,1.24,0,0,1,24,33.25v0A9.25,9.25,0,0,1,33.25,24Z" transform="translate(66.5 58.49) rotate(180)"/><path class="cls-1" d="M18.75,28h0A9.25,9.25,0,0,1,28,37.25V38.5a0,0,0,0,1,0,0H10.75A1.24,1.24,0,0,1,9.5,37.25v0A9.25,9.25,0,0,1,18.75,28Z" transform="translate(-14.5 52) rotate(-90)"/><path class="cls-1" d="M29.25,9.5h0a9.25,9.25,0,0,1,9.25,9.25V20a0,0,0,0,1,0,0H21.24A1.24,1.24,0,0,1,20,18.75v0A9.25,9.25,0,0,1,29.25,9.5Z" transform="translate(44 -14.5) rotate(90)"/></svg>
